svgs/light/puzzle-piece-simple.svg

<svg xmlns="http://www.w3.org/2000/svg" viewBox="0 0 640 512"><!-- Font Awesome Pro 6.0.0-alpha2 by @fontawesome - https://fontawesome.com License - https://fontawesome.com/license (Commercial License) --><path d="M576 176C557.469 176 539.906 186 527.844 203.422C526.891 204.797 524.25 208 520.359 208C515.75 208 512 204.25 512 199.641V112C512 85.531 490.469 64 464 64H376.359C354.109 64 336 82.109 336 104.359C336 117.547 342.859 130.188 354.359 138.156C359.453 141.688 368 149.203 368 160C368 177.344 346.016 192 320 192S272 177.344 272 160C272 149.203 280.547 141.688 285.672 138.141C297.141 130.188 304 117.547 304 104.359C304 82.109 285.891 64 263.641 64H176C149.531 64 128 85.531 128 112V199.641C128 204.25 124.25 208 119.641 208C115.75 208 113.109 204.797 112.156 203.422C100.094 186 82.531 176 64 176C28.703 176 0 211.891 0 256S28.703 336 64 336C82.547 336 100.094 326 112.141 308.578C113.094 307.203 115.734 304 119.641 304C124.25 304 128 307.75 128 312.359V400C128 426.469 149.531 448 176 448H263.641C285.891 448 304 429.891 304 407.641C304 394.453 297.141 381.812 285.641 373.844C280.547 370.312 272 362.797 272 352C272 334.656 293.984 320 320 320S368 334.656 368 352C368 362.797 359.453 370.312 354.328 373.859C342.859 381.812 336 394.453 336 407.641C336 429.891 354.109 448 376.359 448H464C490.469 448 512 426.469 512 400V312.359C512 307.75 515.75 304 520.359 304C524.266 304 526.906 307.203 527.844 308.547C539.906 326 557.453 336 576 336C611.297 336 640 300.109 640 256S611.297 176 576 176ZM576 304C565.203 304 557.688 295.453 554.141 290.328C546.188 278.859 533.547 272 520.359 272C498.109 272 480 290.109 480 312.359V400C480 408.828 472.828 416 464 416H376.359C371.75 416 368 412.25 368 407.641C368 403.734 371.203 401.094 372.547 400.156C390 388.094 400 370.547 400 352C400 316.703 364.109 288 320 288S240 316.703 240 352C240 370.547 250 388.094 267.422 400.141C268.797 401.094 272 403.734 272 407.641C272 412.25 268.25 416 263.641 416H176C167.172 416 160 408.828 160 400V312.359C160 290.109 141.891 272 119.641 272C106.453 272 93.812 278.859 85.844 290.359C82.312 295.453 74.797 304 64 304C46.656 304 32 282.016 32 256S46.656 208 64 208C74.797 208 82.312 216.547 85.844 221.641C93.797 233.141 106.438 240 119.641 240C141.891 240 160 221.891 160 199.641V112C160 103.172 167.172 96 176 96H263.641C268.25 96 272 99.75 272 104.359C272 108.266 268.797 110.906 267.453 111.844C250 123.906 240 141.453 240 160C240 195.297 275.891 224 320 224S400 195.297 400 160C400 141.453 390 123.906 372.578 111.859C371.203 110.906 368 108.266 368 104.359C368 99.75 371.75 96 376.359 96H464C472.828 96 480 103.172 480 112V199.641C480 221.891 498.109 240 520.359 240C533.563 240 546.203 233.141 554.156 221.641C557.688 216.547 565.203 208 576 208C593.344 208 608 229.984 608 256S593.344 304 576 304Z"/></svg>

<svg xmlns="http://www.w3.org/2000/svg" viewBox="0 0 640 512"><!--! Font Awesome Pro 6.3.0 by @fontawesome - https://fontawesome.com License - https://fontawesome.com/license (Commercial License) Copyright 2023 Fonticons, Inc. --><path d="M576 176c-18.53 0-36.09 10-48.16 27.42C526.9 204.8 524.3 208 520.4 208C515.8 208 512 204.3 512 199.6V112C512 85.53 490.5 64 464 64l-87.64 0C354.1 63.1 336 82.11 336 104.4c0 13.19 6.859 25.83 18.36 33.8C359.5 141.7 368 149.2 368 160c0 17.34-21.98 32-48 32S272 177.3 272 160c0-10.8 8.547-18.31 13.67-21.86C297.1 130.2 304 117.5 304 104.4c0-22.25-18.11-40.36-40.36-40.36L176 64C149.5 64 128 85.53 128 112v87.64C128 204.3 124.3 208 119.6 208c-3.891 0-6.531-3.203-7.484-4.578C100.1 186 82.53 176 64 176C28.7 176 .0004 211.9 .0004 256S28.7 336 64 336c18.55 0 36.09-9.1 48.14-27.42C113.1 307.2 115.7 304 119.6 304C124.3 304 128 307.7 128 312.4V400C128 426.5 149.5 448 176 448h87.64C285.9 448 304 429.9 304 407.6c0-13.19-6.859-25.83-18.36-33.8C280.5 370.3 272 362.8 272 352c0-17.34 21.98-32 48-32s48 14.66 48 32c0 10.8-8.547 18.31-13.67 21.86C342.9 381.8 336 394.5 336 407.6C336 429.9 354.1 448 376.4 448H464c26.47 0 48-21.53 48-48V312.4C512 307.7 515.8 304 520.4 304c3.906 0 6.547 3.203 7.484 4.547C539.9 326 557.5 336 576 336c35.3 0 64-35.89 64-80S611.3 176 576 176zM576 304c-10.8 0-18.31-8.547-21.86-13.67C546.2 278.9 533.5 272 520.4 272C498.1 272 480 290.1 480 312.4V400c0 8.828-7.172 16-16 16h-87.64C371.8 416 368 412.3 368 407.6c0-3.906 3.203-6.547 4.547-7.484C389.1 388.1 400 370.5 400 352c0-35.3-35.89-64-80-64s-80 28.7-80 64c0 18.55 9.1 36.09 27.42 48.14C268.8 401.1 272 403.7 272 407.6C272 412.3 268.3 416 263.6 416H176C167.2 416 160 408.8 160 400V312.4C160 290.1 141.9 272 119.6 272c-13.19 0-25.83 6.859-33.8 18.36C82.31 295.5 74.8 304 64 304C46.66 304 32 282 32 256s14.66-48 32-48c10.8 0 18.31 8.547 21.84 13.64C93.8 233.1 106.4 240 119.6 240C141.9 240 160 221.9 160 199.6V112C160 103.2 167.2 96 176 96h87.64C268.3 96 272 99.75 272 104.4c0 3.906-3.203 6.547-4.547 7.484C249.1 123.9 240 141.5 240 160c0 35.3 35.89 64 80 64s80-28.7 80-64c0-18.55-10-36.09-27.42-48.14C371.2 110.9 368 108.3 368 104.4C368 99.75 371.8 96 376.4 96H464C472.8 96 480 103.2 480 112v87.64C480 221.9 498.1 240 520.4 240c13.2 0 25.84-6.859 33.8-18.36C557.7 216.5 565.2 208 576 208c17.34 0 32 21.98 32 48S593.3 304 576 304z"/></svg>
